img/ideal_curved_mirror.svg

<svg version="1.1" xmlns="http://www.w3.org/2000/svg" xmlns:xlink="http://www.w3.org/1999/xlink" width="101" height="100"><defs/><g><rect fill="black" stroke="none" x="0" y="0" width="101" height="100"/><g/><path fill="none" stroke="rgb(0,255,0)" paint-order="fill stroke markers" d=" M -32.215392619129986 41.96637107529785 L -20.918211159890014 87.3517710848879" stroke-miterlimit="10" stroke-width="4" stroke-dasharray=""/><path fill="none" stroke="rgb(128,128,128)" paint-order="fill stroke markers" d=" M -34.15617132893134 42.449463198584695 L -22.858989869691367 87.83486320817474" stroke-opacity="255" stroke-miterlimit="10" stroke-width="2" stroke-dasharray=""/><path fill="none" stroke="rgb(168,168,168)" paint-order="fill stroke markers" d=" M 42.57488346479848 15.228819401427462 L 80.55035894003373 83.40166091721125" stroke-miterlimit="10" stroke-dasharray=""/><path fill="none" stroke="rgb(255,255,255)" paint-order="fill stroke markers" d=" M 60.689017616986334 49.80187839818292 L 62.43622478784589 48.82860192045578" stroke-miterlimit="10" stroke-dasharray=""/><path fill="rgb(255,0,0)" stroke="none" paint-order="stroke fill markers" d=" M 45.008074659116325 19.596837328576356 L 44.50971019762953 8.427610279960728 L 35.77367434333175 13.293992668596406"/><path fill="rgb(255,0,0)" stroke="none" paint-order="stroke fill markers" d=" M 78.11716774571589 79.03364299006235 L 87.35156806150047 85.3364876500423 L 78.61553220720268 90.20287003867799"/><path fill="none" stroke="rgb(255,255,128)" paint-order="fill stroke markers" d=" M -32.948441020714235 47.301409973088084 L 49.06849688455119 26.8860290344775" stroke-miterlimit="10" stroke-dasharray=""/><path fill="none" stroke="rgb(255,255,128)" paint-order="fill stroke markers" d=" M -30.532980404280025 57.00530352209485 L 54.10991128395632 35.936278980397574" stroke-miterlimit="10" stroke-dasharray=""/><path fill="none" stroke="rgb(255,255,128)" paint-order="fill stroke markers" d=" M -28.11751978784581 66.70919707110163 L 59.15132568336144 44.986528926317625" stroke-miterlimit="10" stroke-dasharray=""/><path fill="none" stroke="rgb(255,255,128)" paint-order="fill stroke markers" d=" M -25.702059171411598 76.41309062010839 L 64.19274008276659 54.0367788722377" stroke-miterlimit="10" stroke-dasharray=""/><path fill="none" stroke="rgb(255,255,128)" paint-order="fill stroke markers" d=" M -23.286598554977385 86.11698416911517 L 69.23415448217173 63.087028818157755" stroke-miterlimit="10" stroke-dasharray=""/><path fill="none" stroke="rgb(255,255,128)" paint-order="fill stroke markers" d=" M 49.06849688455119 26.8860290344775 L -817.8376329713946 2169.429262274568" stroke-miterlimit="10" stroke-dasharray=""/><path fill="none" stroke="rgb(255,255,128)" paint-order="fill stroke markers" d=" M 54.10991128395632 35.936278980397574 L -1120.9896702920857 2042.5495630694925" stroke-miterlimit="10" stroke-dasharray=""/><path fill="none" stroke="rgb(255,255,128)" paint-order="fill stroke markers" d=" M 59.15132568336144 44.986528926317625 L -1456.557770751711 1827.0407193799438" stroke-miterlimit="10" stroke-dasharray=""/><path fill="none" stroke="rgb(255,255,128)" paint-order="fill stroke markers" d=" M 64.19274008276659 54.0367788722377 L -1787.9282371901481 1506.2322004699504" stroke-miterlimit="10" stroke-dasharray=""/><path fill="none" stroke="rgb(255,255,128)" paint-order="fill stroke markers" d=" M 69.23415448217173 63.087028818157755 L -2062.2059974300955 1093.9682732019962" stroke-miterlimit="10" stroke-dasharray=""/><path fill="none" stroke="rgb(0,255,0)" paint-order="fill stroke markers" d=" M -32.215392619129986 41.96637107529785 L -20.918211159890014 87.3517710848879" stroke-miterlimit="10" stroke-width="4" stroke-dasharray=""/><path fill="none" stroke="rgb(128,128,128)" paint-order="fill stroke markers" d=" M -34.15617132893134 42.449463198584695 L -22.858989869691367 87.83486320817474" stroke-opacity="255" stroke-miterlimit="10" stroke-width="2" stroke-dasharray=""/><path fill="none" stroke="rgb(168,168,168)" paint-order="fill stroke markers" d=" M 42.57488346479848 15.228819401427462 L 80.55035894003373 83.40166091721125" stroke-miterlimit="10" stroke-dasharray=""/><path fill="none" stroke="rgb(255,255,255)" paint-order="fill stroke markers" d=" M 60.689017616986334 49.80187839818292 L 62.43622478784589 48.82860192045578" stroke-miterlimit="10" stroke-dasharray=""/><path fill="rgb(255,0,0)" stroke="none" paint-order="stroke fill markers" d=" M 45.008074659116325 19.596837328576356 L 44.50971019762953 8.427610279960728 L 35.77367434333175 13.293992668596406"/><path fill="rgb(255,0,0)" stroke="none" paint-order="stroke fill markers" d=" M 78.11716774571589 79.03364299006235 L 87.35156806150047 85.3364876500423 L 78.61553220720268 90.20287003867799"/></g></svg>

<svg xmlns="http://www.w3.org/2000/svg" width="101" height="100"><path d="M0 0h101v100H0z"/><path fill="none" stroke="#0F0" paint-order="fill stroke markers" d="m-32.215 41.966 11.297 45.386" stroke-miterlimit="10" stroke-width="4"/><path fill="none" stroke="gray" paint-order="fill stroke markers" d="m-34.156 42.45 11.297 45.385" stroke-opacity="255" stroke-miterlimit="10" stroke-width="2"/><path fill="none" stroke="#A8A8A8" paint-order="fill stroke markers" d="M42.575 15.229 80.55 83.402" stroke-miterlimit="10"/><path fill="none" stroke="#FFF" paint-order="fill stroke markers" d="m60.689 49.802 1.747-.973" stroke-miterlimit="10"/><path fill="red" paint-order="stroke fill markers" d="m45.008 19.597-.498-11.17-8.736 4.867M78.117 79.034l9.235 6.302-8.736 4.867"/><path fill="none" stroke="#FFFF80" paint-order="fill stroke markers" d="m-32.948 47.301 82.016-20.415M-30.533 57.005 54.11 35.936M-28.118 66.71l87.27-21.723M-25.702 76.413l89.895-22.376M-23.287 86.117l92.521-23.03M49.068 26.886l-866.906 2142.543M54.11 35.936l-1175.1 2006.614M59.151 44.987-1456.558 1827.04M64.193 54.037l-1852.121 1452.195M69.234 63.087l-2131.44 1030.881" stroke-miterlimit="10"/><path fill="none" stroke="#0F0" paint-order="fill stroke markers" d="m-32.215 41.966 11.297 45.386" stroke-miterlimit="10" stroke-width="4"/><path fill="none" stroke="gray" paint-order="fill stroke markers" d="m-34.156 42.45 11.297 45.385" stroke-opacity="255" stroke-miterlimit="10" stroke-width="2"/><path fill="none" stroke="#A8A8A8" paint-order="fill stroke markers" d="M42.575 15.229 80.55 83.402" stroke-miterlimit="10"/><path fill="none" stroke="#FFF" paint-order="fill stroke markers" d="m60.689 49.802 1.747-.973" stroke-miterlimit="10"/><path fill="red" paint-order="stroke fill markers" d="m45.008 19.597-.498-11.17-8.736 4.867M78.117 79.034l9.235 6.302-8.736 4.867"/></svg>
